!!!COM:	Bach, Johann Sebastian
!!!CDT:	1685/02/21/-1750/07/28/
!!!OTL@@DE:	Erschienen ist der herrliche Tag
!!!SCT:	BWV 145/5
!!!PC#:	17
!!!AGN:	chorale
**kern	**kern	**kern	**kern
*ICvox	*ICvox	*ICvox	*ICvox
*Ibass	*Itenor	*Ialto	*Isoprn
*I"Bass	*I"Tenor	*I"Alto	*I"Soprano
*clefF4	*clefGv2	*clefG2	*clefG2
*k[f#]	*k[f#]	*k[f#]	*k[f#]
*e:	*e:	*e:	*e:
*M3/4	*M3/4	*M3/4	*M3/4
*MM100	*MM100	*MM100	*MM100
=1-	=1-	=1-	=1-
8EL	8GL	4B	4e
8F#J	8AJ	.	.
4G	4B	4B	4e
[4A	4A	4c#	4e
=2	=2	=2	=2
4A]	4F#	4d	2b
4G#	4B	4e	.
4A	4A	4e	4cc#
=3	=3	=3	=3
4F#	4A	8f#L	4dd
.	.	8g#J	.
4D	4F#	4a	4cc#
4E	4B	4g#	4b
=4	=4	=4	=4
2.AA;	2.c#;	2.e;	2.a;
=5	=5	=5	=5
4G#	4B	4e	4b
4A	4A	4e	4cc#
4F#	4A	4f#	4dd#
=6	=6	=6	=6
8EL	2B	8gnXL	2ee
8D#	.	8a	.
8E	.	8g	.
8F#J	.	8f#J	.
4GnX	4B	4e	4b
=7	=7	=7	=7
4F#	2B	4f#	4dd
4E	.	4g	2cc#
4F#	4A#	4f#	.
=8	=8	=8	=8
2BB;	2F#;	2d#;	2b;
4E	4G	4e	4b
=9	=9	=9	=9
2F#	2A	2dnX	4dd
.	.	.	4cc
4G	4G	4d	4b
=10	=10	=10	=10
2C#	4E	2e	4a
.	2A	.	4g
4D	.	4d	4f#
=11	=11	=11	=11
4BB	8GL	2d	4g
.	8AJ	.	.
4GG	4B	.	2e
4AA	8AL	4c#	.
.	8GJ	.	.
=12	=12	=12	=12
2D;	2F#;	2A;	2d;
4BB	4F#	4B	4d
=13	=13	=13	=13
2E	4G	4B	2g
.	2c	4e	.
4F#	.	4d	4a
=14	=14	=14	=14
4G	4B	8dL	2b
.	.	8eJ	.
2D#	2B	2f#	.
.	.	.	4a
=15	=15	=15	=15
4E	8BL	4e	4g
.	8cJ	.	.
4B	2d	8f#L	2dd
.	.	8gJ	.
4F#	.	4a	.
=16	=16	=16	=16
2G;	2d;	2g;	2b;
4A	4c	4f#	4a
=17	=17	=17	=17
4B	4B	2e	4g
2BB	8AL	.	2f#
.	8GJ	.	.
.	4A	4d#	.
=18	=18	=18	=18
2.E;	2.G#;	2.B;	2.e;
==	==	==	==
*-	*-	*-	*-
!!!hum2abc: -Q ''
!!!title: @{PC#}. @{OTL@@DE}
!!!YOR1: 371 vierstimmige Choralges&auml;nge von Johann Sebastian Bach, 
!!!YOR2: 4th ed. by Alfred D&ouml;rffel (Leipzig: Breitkopf und H&auml;rtel, 
!!!YOR2: c.1875). 178 pp. Plate "V.A.10".  reprint: J.S. Bach, 371 Four-Part 
!!!YOR4: Chorales (New York: Associated Music Publishers, Inc., c.1940).
!!!SMS: B&H, 4th ed, Alfred D&ouml;rffel, c.1875, plate V.A.10
!!!EED:  Craig Stuart Sapp
!!!EEV:  2009/05/22
